X:142
T: ROTHE ROSEN BLUEHEN
N: E1225
O: Europa, Mitteleuropa, Deutschland, Schlesien, Glogau
R: Ansinge -, Brauchtums - Lied, Kirchen - Fest, Sommer - Tags - Lied
M: 2/4
L: 1/16
K: F
 | c3BA2B2 | c3BA2B2 |
c2c2c2d2 | c4A2
A2 | c3BA2B2 | c3BA2B2 |
c2c2c2d2 | c4A4

@@@ Tune index: 4826
